X:33
T:Gillian Head
R:reel
C:Jerry Holland
O:Cape Breton Island
S:http://www.cranfordpub.com 
B:Jerry Holland the 2nd Collection, 2000
Z:psc, (re-formatted,updated 9/19/04)
N:http://www.jerryholland.com
H:                                                        copyrights Fiddlesticksmusic, SOCAN
L:1/8
Q:333
M:C|
K:E
zf|e2 BG cBAc|BE E/E/E GBBG|AccA Beec|dB B/B/B Bcdf|
e2 BG AGFE|EA A/A/A AcBA|GBeg fBcd|e2 g2 e2:|
|:ag|fB B/B/B defa|ge e/e/e Bege|cA A/A/A BGGB|[1agfe f2 de|
fB B/B/B defa|geeB GABe|cA A/A/A GBeg|fBcd e2:|
[2 agfe f2 ed|e2 BG AGFE|EA A/A/A AcBA|GBeg fBcd|e2 g2 e2|]
